images/header-price-btn-logo.svg

<svg width="28" height="34" fill="none" xmlns="http://www.w3.org/2000/svg"><path d="M21.74 4.25H6.17c-1.06 0-1.92.86-1.92 1.92V9c0 1.06.86 1.92 1.92 1.92h15.57c1.06 0 1.92-.86 1.92-1.92V6.17c0-1.06-.86-1.92-1.92-1.92zM22.65 9c0 .5-.41.91-.91.91H6.17c-.5 0-.91-.41-.91-.91V6.17c0-.5.41-.91.91-.91h15.57c.5 0 .91.41.91.91V9zM10.77 27.04c.1.1.15.22.15.36 0 .14-.05.26-.15.36-.19.19-.53.19-.72 0L8.29 26l-1.76 1.76c-.09.09-.22.15-.36.15a.508.508 0 01-.36-.87l1.76-1.76-1.76-1.76c-.19-.2-.19-.52.01-.72.1-.1.23-.14.35-.14.12 0 .25.05.35.14l1.76 1.76 1.76-1.76c.1-.09.2-.15.36-.14.14 0 .26.06.36.15.19.2.19.51 0 .7L9 25.27l1.76 1.76.01.01zm11.48.36c0 .28-.23.51-.51.51h-4.25c-.28 0-.51-.23-.51-.51s.23-.51.51-.51h4.25c.28 0 .51.23.51.51zM10.92 16.78c0 .28-.23.51-.51.51H8.79v1.62c0 .28-.23.51-.51.51s-.51-.23-.51-.51v-1.62H6.15c-.28 0-.51-.23-.51-.51s.23-.51.51-.51h1.62v-1.62c0-.28.23-.51.51-.51s.51.23.51.51v1.62h1.62c.28 0 .51.23.51.51zM24.57 0H3.34C1.5 0 0 1.5 0 3.34v26.89c0 1.84 1.5 3.34 3.34 3.34h21.23c1.84 0 3.34-1.5 3.34-3.34V3.34c0-1.84-1.5-3.34-3.34-3.34zm2.32 30.23c0 1.28-1.04 2.32-2.32 2.32H3.34c-1.28 0-2.32-1.04-2.32-2.32V3.34c0-1.28 1.04-2.32 2.32-2.32h21.23c1.28 0 2.32 1.04 2.32 2.32v26.89zm-4.64-13.45c0 .28-.23.51-.51.51h-4.25c-.28 0-.51-.23-.51-.51s.23-.51.51-.51h4.25c.28 0 .51.23.51.51zm0 6.37c0 .28-.23.51-.51.51h-4.25c-.28 0-.51-.23-.51-.51s.23-.51.51-.51h4.25c.28 0 .51.23.51.51z" fill="#003A94"/></svg>

<svg width="28" height="34" viewBox="0 0 28 34" fill="none" xmlns="http://www.w3.org/2000/svg">
<path d="M21.74 4.25H6.17C5.11 4.25 4.25 5.11 4.25 6.17V9C4.25 10.06 5.11 10.92 6.17 10.92H21.74C22.8 10.92 23.66 10.06 23.66 9V6.17C23.66 5.11 22.8 4.25 21.74 4.25ZM22.65 9C22.65 9.5 22.24 9.91 21.74 9.91H6.17C5.67 9.91 5.26 9.5 5.26 9V6.17C5.26 5.67 5.67 5.26 6.17 5.26H21.74C22.24 5.26 22.65 5.67 22.65 6.17V9ZM10.77 27.04C10.87 27.14 10.92 27.26 10.92 27.4C10.92 27.54 10.87 27.66 10.77 27.76C10.58 27.95 10.24 27.95 10.05 27.76L8.29 26L6.53 27.76C6.44 27.85 6.31 27.91 6.17 27.91C5.89 27.91 5.66 27.68 5.66 27.4C5.66 27.27 5.71 27.14 5.81 27.04L7.57 25.28L5.81 23.52C5.62 23.32 5.62 23 5.82 22.8C5.92 22.7 6.05 22.66 6.17 22.66C6.29 22.66 6.42 22.71 6.52 22.8L8.28 24.56L10.04 22.8C10.14 22.71 10.24 22.65 10.4 22.66C10.54 22.66 10.66 22.72 10.76 22.81C10.95 23.01 10.95 23.32 10.76 23.51L9 25.27L10.76 27.03L10.77 27.04ZM22.25 27.4C22.25 27.68 22.02 27.91 21.74 27.91H17.49C17.21 27.91 16.98 27.68 16.98 27.4C16.98 27.12 17.21 26.89 17.49 26.89H21.74C22.02 26.89 22.25 27.12 22.25 27.4ZM10.92 16.78C10.92 17.06 10.69 17.29 10.41 17.29H8.79V18.91C8.79 19.19 8.56 19.42 8.28 19.42C8 19.42 7.77 19.19 7.77 18.91V17.29H6.15C5.87 17.29 5.64 17.06 5.64 16.78C5.64 16.5 5.87 16.27 6.15 16.27H7.77V14.65C7.77 14.37 8 14.14 8.28 14.14C8.56 14.14 8.79 14.37 8.79 14.65V16.27H10.41C10.69 16.27 10.92 16.5 10.92 16.78ZM24.57 0H3.34C1.5 0 0 1.5 0 3.34V30.23C0 32.07 1.5 33.57 3.34 33.57H24.57C26.41 33.57 27.91 32.07 27.91 30.23V3.34C27.91 1.5 26.41 0 24.57 0ZM26.89 30.23C26.89 31.51 25.85 32.55 24.57 32.55H3.34C2.06 32.55 1.02 31.51 1.02 30.23V3.34C1.02 2.06 2.06 1.02 3.34 1.02H24.57C25.85 1.02 26.89 2.06 26.89 3.34V30.23ZM22.25 16.78C22.25 17.06 22.02 17.29 21.74 17.29H17.49C17.21 17.29 16.98 17.06 16.98 16.78C16.98 16.5 17.21 16.27 17.49 16.27H21.74C22.02 16.27 22.25 16.5 22.25 16.78ZM22.25 23.15C22.25 23.43 22.02 23.66 21.74 23.66H17.49C17.21 23.66 16.98 23.43 16.98 23.15C16.98 22.87 17.21 22.64 17.49 22.64H21.74C22.02 22.64 22.25 22.87 22.25 23.15Z" fill="#003A94"/>
</svg>
